X:1042
T:Billy Wilson
T:Little Billy Wilson
R:reel
D:Patrick Street: All in Good Time
O:American
Z:id:hn-reel-1042
M:C|
L:1/8
K:A
(3efg | a2g2 a2ea | fedf edcA | B2G2 B2G2 | ABcd efge |
a2g2 a2ea | fedf edcB | ABcd efed | cABG A2 :|
|: E2 | ABcd efed | cABc B2cB | ABcd efed | cABG A2 :|
|: (3EFG | A3A- AcBA | F3E F2EF | A3A- ABcd | e3e- efec |
B3A BcBA | F3E F2EF | A2ae faed | cABc A2 :|
P:variations
|: (3efg | a2g2 a2ea | fedf edcA | B2Bc B2AB | cBcd e2 (3efg |
a2g2 a2ea | fedf edcB | ABcd efed | cABG A2 :|
AA | ABcd efed | c2cc BABc | ABcd efed | cABG A3A |
ABcd edcA | BAGA BAGB | ABcd efed | cABG A4 ||
|: A3A- ABA2 | F2FF- FFEF | A3c BAc2 | e3e- efec |
B2BB- BcBA | F2FF-FFEF | A2ae faed | cABG A2 :|

